X:255
T: My Boy Tommy
N: O'Farrell's Pocket Companion v.3 (Sky ed. p.120)
N: "Scotch"
M: 4/4
L: 1/8
R: hornpipe % strathspey?
Q: 220
K: Em
E>FGA B>c d2| A>B A>G F<D D2|E>FGA Bc d2| Bgfe Be2e|
e>fge d>c B2| G>G d>B AF D2| e>gf>g e2 B2|G>ABA GE3 :|
